public/assets/img/home1/icon/javascript-icon.svg

<svg width="24" height="24" viewBox="0 0 24 24" fill="none" xmlns="http://www.w3.org/2000/svg">
<mask id="mask0_1531_62756" style="mask-type:alpha" maskUnits="userSpaceOnUse" x="0" y="0" width="24" height="24">
<rect width="24" height="24" rx="5" fill="#D9D9D9"/>
</mask>
<g mask="url(#mask0_1531_62756)">
<mask id="mask1_1531_62756" style="mask-type:alpha" maskUnits="userSpaceOnUse" x="0" y="0" width="24" height="24">
<rect width="24" height="24" fill="#D9D9D9"/>
</mask>
<g mask="url(#mask1_1531_62756)">
</g>
<g clip-path="url(#clip0_1531_62756)">
<path d="M0 0H24V24H0V0Z" fill="#F0DB4F"/>
<path d="M22.0356 18.276C21.8599 17.181 21.1458 16.2616 19.031 15.4038C18.2964 15.0661 17.4774 14.8243 17.2333 14.2677C17.1466 13.9437 17.1352 13.7612 17.1899 13.565C17.3473 12.9285 18.107 12.73 18.7093 12.9125C19.0972 13.0426 19.4645 13.3414 19.6857 13.8182C20.7215 13.1475 20.7192 13.1521 21.4424 12.6913C21.1778 12.2806 21.0363 12.0912 20.8629 11.9156C20.2401 11.2198 19.3915 10.8616 18.034 10.889C17.7991 10.9186 17.5618 10.9505 17.3268 10.9802C16.6493 11.1513 16.0036 11.5072 15.6249 11.984C14.4888 13.273 14.8127 15.5293 16.1953 16.4578C17.5572 17.4798 19.558 17.7125 19.8135 18.6684C20.0622 19.8388 18.9535 20.2175 17.8515 20.0829C17.0394 19.9141 16.5877 19.5011 16.0994 18.7506C15.2006 19.2707 15.2006 19.2707 14.2766 19.8023C14.4957 20.2814 14.7261 20.4981 15.0934 20.9133C16.8318 22.6768 21.1823 22.5901 21.9626 19.9209C21.9945 19.8296 22.2044 19.2182 22.0356 18.276ZM13.047 11.0304H10.8021C10.8021 12.9696 10.793 14.895 10.793 16.8342C10.793 18.0684 10.8569 19.2 10.6561 19.5467C10.3276 20.2289 9.47664 20.1445 9.08881 20.0121C8.69413 19.8182 8.49337 19.5422 8.26068 19.1521C8.1968 19.0403 8.14889 18.9536 8.1329 18.9467C7.52379 19.3186 6.91693 19.6927 6.3078 20.0646C6.61125 20.6874 7.05837 21.2281 7.63099 21.5794C8.48651 22.0927 9.63632 22.2501 10.8386 21.9741C11.6211 21.746 12.2964 21.2737 12.65 20.5551C13.161 19.6129 13.0515 18.4722 13.047 17.2106C13.0584 15.1528 13.047 13.095 13.047 11.0304Z" fill="#323330"/>
</g>
</g>
<defs>
<clipPath id="clip0_1531_62756">
<rect width="24" height="24" fill="white"/>
</clipPath>
</defs>
</svg>

<svg xmlns="http://www.w3.org/2000/svg" width="24" height="24" fill="none" viewBox="0 0 24 24">
    <mask id="a" width="24" height="24" x="0" y="0" maskUnits="userSpaceOnUse" style="mask-type:alpha">
        <rect width="24" height="24" fill="#d9d9d9" rx="5"/>
    </mask>
    <g mask="url(#a)">
        <mask id="b" width="24" height="24" x="0" y="0" maskUnits="userSpaceOnUse" style="mask-type:alpha">
            <path fill="#d9d9d9" d="M0 0h24v24H0z"/>
        </mask>
        <g clip-path="url(#c)">
            <path fill="#f0db4f" d="M0 0h24v24H0z"/>
            <path fill="#323330" d="M22.036 18.276c-.176-1.095-.89-2.014-3.005-2.872-.735-.338-1.554-.58-1.798-1.136-.086-.324-.098-.507-.043-.703.157-.636.917-.835 1.52-.652.387.13.755.428.976.905 1.035-.67 1.033-.666 1.756-1.127-.264-.41-.406-.6-.58-.775-.622-.696-1.47-1.054-2.828-1.027q-.354.046-.707.091c-.678.171-1.323.527-1.702 1.004-1.136 1.289-.812 3.545.57 4.474 1.362 1.022 3.363 1.255 3.619 2.21.248 1.17-.86 1.55-1.962 1.415-.813-.169-1.264-.582-1.753-1.332-.898.52-.898.52-1.822 1.051.219.48.45.696.816 1.111 1.739 1.764 6.09 1.677 6.87-.992.031-.091.241-.703.073-1.645m-8.989-7.246h-2.245c0 1.94-.009 3.865-.009 5.804 0 1.234.064 2.366-.137 2.713-.328.682-1.18.598-1.567.465-.395-.194-.596-.47-.828-.86-.064-.112-.112-.198-.128-.205q-.913.559-1.825 1.118c.303.622.75 1.163 1.323 1.514.856.514 2.005.671 3.208.395.782-.228 1.457-.7 1.811-1.419.511-.942.402-2.083.397-3.344.011-2.058 0-4.116 0-6.18"/>
        </g>
    </g>
    <defs>
        <clipPath id="c">
            <path fill="#fff" d="M0 0h24v24H0z"/>
        </clipPath>
    </defs>
</svg>
